X:1
T:Qúe Preciosas Mañanitas
T:Traditional
T:Qúe Preciosas Mañanitas
T:Public Domain
C:Traditional
Z:Public Domain
%%score ( 1 2 ) ( 3 4 )
L:1/8
M:4/8
K:F
V:1 treble 
V:2 treble 
V:3 bass 
V:4 bass 
V:1
 z4 | z2 [A,F][FA] | [Ac] [FA]2 [EG] | cB [EG]2 | GABA | B2 c2 x | [FA]4 | GABA | [GB]2 A2 x | %9
 [DG] C2 z | [FAc][EGc][FAc][CGc] | [DFB]2 [B,EA]2 | [A,CF]4 | [FAc][EGc][FAc][CGc] | %14
 [DF][CE][B,D][CE] | [A,CF]6 |] %16
V:2
 x4 | x4 | x4 | D2 x2 | D2 G2 | G4 x | x4 | D2 G2 | x2 A2 x | x C2 x | x4 | x4 | x4 | x4 | B2 A2 | %15
 x6 |] %16
V:3
 [F,C]4 | [F,C]4 | [F,C]4 | B,2 C2 | B,CDC | D2 z E, x | F,3 E, | B,CDC | D2 z E, x | F,2 E,C,- | %10
 [F,,C,F,] z z2 | z2 z C,- | [F,,C,]4 | z4 | z2 z C,- | [F,,C,]6 |] %16
V:4
 x4 | x4 | x4 | F,4 | F,4 | F,3 C2 | C4 | F,4- | F,3 C2 | B,3 x | x4 | x4 | x4 | x4 | x4 | x6 |] %16

